!!!COM: Corelli, Arcangelo
!!!OTL: 
!!!ONM: Opus 6, No. 5
!!!OMV: 5
!!!CDT: 1653/2/17/-1713/1/8/
!!!OCY: Italia
**kern	**kern	**kern	**kern	**kern	**kern	**kern
*clefC	*clefG	*clefG	*clefG	*clefC	*clefG	*clefG
*k[b-]	*k[b-]	*k[b-]	*k[b-]	*k[b-]	*k[b-]	*k[b-]
*F:	*F:	*F:	*F:	*F:	*F:	*F:
*M4/4	*M4/4	*M4/4	*M4/4	*M4/4	*M4/4	*M4/4
=1	=1	=1	=1	=1	=1	=1
4B-	4b-	4dd	4ff	4B-	4dd	4ff
4A	4f	4cc	4ff	4A	4cc	4ff
4B-	4b-	4dd	4ff	4B-	4dd	4ff
4F	4a	4cc	4ff	4F	4cc	4ff
=2	=2	=2	=2	=2	=2	=2
1r	1r	1r	1r	4B-	12dd	12ff
.	.	.	.	.	12ee-	12gg
.	.	.	.	.	12dd	12ff
.	.	.	.	4A	12cc	12ff
.	.	.	.	.	12dd	12gg
.	.	.	.	.	12cc	12ff
.	.	.	.	4B-	12dd	12ff
.	.	.	.	.	12ee-	12gg
.	.	.	.	.	12dd	12ff
.	.	.	.	4F	12cc	12ff
.	.	.	.	.	12dd	12gg
.	.	.	.	.	12cc	12ff
=3	=3	=3	=3	=3	=3	=3
4c	4cc	4ee-	4gg	4c	4ee-	4gg
4B	4g	4dd	4gg	4B	4dd	4gg
4c	4cc	4ee-	4gg	4c	4ee-	4gg
4G	4b	4dd	4gg	4G	4dd	4gg
=4	=4	=4	=4	=4	=4	=4
1r	1r	1r	1r	4c	12ee-	12gg
.	.	.	.	.	12ff	12aa-
.	.	.	.	.	12ee-	12gg
.	.	.	.	4B	12dd	12gg
.	.	.	.	.	12ee-	12aa-
.	.	.	.	.	12dd	12gg
.	.	.	.	4c	12ee-	12gg
.	.	.	.	.	12ff	12aa-
.	.	.	.	.	12ee-	12gg
.	.	.	.	4G	12dd	12gg
.	.	.	.	.	12ee-	12aa-
.	.	.	.	.	12dd	12gg
=5	=5	=5	=5	=5	=5	=5
4B-	4.b-	4.dd	4.ff	4B-	4.dd	4.ff
4D	.	.	.	4D	.	.
.	8b-	8dd	8ff	.	8dd	8ff
4E-	4b-	8g	8ee-	4E-	8g	8ee-
.	.	8a	8ff	.	8a	8ff
4BB-	8d	4b-	8dd	4BB-	4b-	8dd
.	8e-	.	8cc	.	.	8cc
=6	=6	=6	=6	=6	=6	=6
4F	4.f	4.b-	4dd	4F	4.b-	4dd
4FF	.	.	4cc	4FF	.	4cc
.	8f	8a	.	.	8a	.
2BB-	2f	4b-	4dd	2BB-	4b-	4dd
.	.	4d	4B-	.	4d	4B-
=7	=7	=7	=7	=7	=7	=7
1r	1r	1r	1r	4B-	12dd	12ff
.	.	.	.	.	12ee-	12gg
.	.	.	.	.	12dd	12ff
.	.	.	.	4D	12dd	12ff
.	.	.	.	.	12ee-	12gg
.	.	.	.	.	12dd	12ff
.	.	.	.	4E-	12b-	12gg
.	.	.	.	.	12dd	12bb-
.	.	.	.	.	12cc	12aa
.	.	.	.	4BB-	8dd	8bb-
.	.	.	.	.	8b-	8dd
=8	=8	=8	=8	=8	=8	=8
1r	1r	1r	1r	4F	4.b-	4.cc
.	.	.	.	4FF	.	.
.	.	.	.	.	8a	8ff
.	.	.	.	2BB-	4b-	4dd
.	.	.	.	.	4d	4B-
=9	=9	=9	=9	=9	=9	=9
4B-	4f	4b-	4dd	4B-	4b-	4dd
4F	4f	4a	4cc	4F	4a	4cc
4B-	4f	4b-	4dd	4B-	4b-	4dd
4F	4f	4a	4cc	4F	4a	4cc
=10	=10	=10	=10	=10	=10	=10
1r	1r	1r	1r	4B-	12b-	12dd
.	.	.	.	.	12cc	12ee-
.	.	.	.	.	12b-	12dd
.	.	.	.	4f	12a	12cc
.	.	.	.	.	12b-	12dd
.	.	.	.	.	12a	12cc
.	.	.	.	4B-	12b-	12dd
.	.	.	.	.	12cc	12ee-
.	.	.	.	.	12b-	12dd
.	.	.	.	4F	12a	12cc
.	.	.	.	.	12b-	12dd
.	.	.	.	.	12a	12cc
=11	=11	=11	=11	=11	=11	=11
4F	4cc	4ff	4aa	4F	4ff	4aa
4C	4cc	4ee	4gg	4C	4ee	4gg
4F	4cc	4ff	4aa	4F	4ff	4aa
4C	4cc	4ee	4gg	4C	4ee	4gg
=12	=12	=12	=12	=12	=12	=12
1r	1r	1r	1r	4F	12ff	12aa
.	.	.	.	.	12gg	12bb-
.	.	.	.	.	12ff	12aa
.	.	.	.	4c	12ee	12gg
.	.	.	.	.	12ff	12aa
.	.	.	.	.	12ee	12gg
.	.	.	.	4F	12ff	12aa
.	.	.	.	.	12gg	12bb-
.	.	.	.	.	12ff	12aa
.	.	.	.	4C	12ee	12gg
.	.	.	.	.	12ff	12aa
.	.	.	.	.	12ee	12gg
=13	=13	=13	=13	=13	=13	=13
4f	4f	4a	4dd	4f	4a	4dd
4e	4c	4g	4cc	4e	4g	4cc
4d	4d	4f	4b-	4d	4f	4b-
4c	4A	4e	4a	4c	4e	4a
=14	=14	=14	=14	=14	=14	=14
1r	1r	1r	1r	4f	12a	12dd
.	.	.	.	.	12b-	12ee
.	.	.	.	.	12a	12dd
.	.	.	.	4e	12g	12cc
.	.	.	.	.	12a	12dd
.	.	.	.	.	12g	12cc
.	.	.	.	4d	12f	12b-
.	.	.	.	.	12g	12cc
.	.	.	.	.	12f	12b-
.	.	.	.	4c	12e	12a
.	.	.	.	.	12f	12b-
.	.	.	.	.	12e	12a
=15	=15	=15	=15	=15	=15	=15
4B-	4.b-	4.f	4.dd	4B-	4.f	4.dd
4d	.	.	.	4d	.	.
.	8b-	8d	8dd	.	8d	8dd
4E	4b-	4g	4cc	4E	4g	4cc
4F	4a	4f	8b-	4F	4f	8b-
.	.	.	8a	.	.	8a
=16	=16	=16	=16	=16	=16	=16
4BB-	4d	4.f	4.g	4BB-	4.f	4.g
4C	4c	.	.	4C	.	.
.	.	8e	8cc	.	8e	8cc
2FF	2c	2f	2a	2FF	2f	2a
=17	=17	=17	=17	=17	=17	=17
1r	1r	1r	1r	4f	12aa	12ccc
.	.	.	.	.	12gg	12bb-
.	.	.	.	.	12ff	12aa
.	.	.	.	4A	12aa	12ccc
.	.	.	.	.	12gg	12bb-
.	.	.	.	.	12ff	12aa
.	.	.	.	4B-	8dd	12ddd
.	.	.	.	.	.	12ccc
.	.	.	.	.	8ee	.
.	.	.	.	.	.	12ddd
.	.	.	.	4F	4ff	12bb-
.	.	.	.	.	.	12ccc
.	.	.	.	.	.	12aa
=18	=18	=18	=18	=18	=18	=18
1r	1r	1r	1r	4c	4.ff	2gg
.	.	.	.	4C	.	.
.	.	.	.	.	8ee	.
.	.	.	.	2F	2ff	2ff
=19	=19	=19	=19	=19	=19	=19
4F	4f	4a	4cc	4F	4a	4cc
4E	4c	4g	4cc	4E	4g	4cc
4F	4f	4a	4cc	4F	4a	4cc
4C	4e	4g	4cc	4C	4g	4cc
=20	=20	=20	=20	=20	=20	=20
1r	1r	1r	1r	4G	12b-	12dd
.	.	.	.	.	12cc	12ee-
.	.	.	.	.	12b-	12dd
.	.	.	.	4F#	12a	12dd
.	.	.	.	.	12b-	12ee-
.	.	.	.	.	12a	12dd
.	.	.	.	4G	12b-	12dd
.	.	.	.	.	12cc	12ee-
.	.	.	.	.	12b-	12dd
.	.	.	.	4D	12a	12dd
.	.	.	.	.	12b-	12ee-
.	.	.	.	.	12a	12dd
=21	=21	=21	=21	=21	=21	=21
4B-	4g	4bb-	4ddd	4B-	4bb-	4ddd
4c	4g	8aa	8ccc	4c	8aa	8ccc
.	.	8gg	8bb-	.	8gg	8bb-
4d	4dd	4ff#	4aa	4d	4ff#	4aa
4G	4d	4gg	8bb-	4G	4gg	8bb-
.	.	.	8ccc	.	.	8ccc
=22	=22	=22	=22	=22	=22	=22
4d	4.d	4.gg	2aa	4d	4.gg	2aa
4D	.	.	.	4D	.	.
.	8d	8ff#	.	.	8ff#	.
4G	2d	2gg	2gg	4G	8gg	8bb-
.	.	.	.	.	8aa	8ccc
4GG	.	.	.	4GG	[4bb-	[4ddd
=23	=23	=23	=23	=23	=23	=23
1r	1r	1r	1r	4B-	4bb-]	4ddd]
.	.	.	.	4c	8aa	8ccc
.	.	.	.	.	8gg	8bb-
.	.	.	.	4d	4ff#	4aa
.	.	.	.	4G	4gg	8bb-
.	.	.	.	.	.	8ccc
=24	=24	=24	=24	=24	=24	=24
1r	1r	1r	1r	4d	4.gg	2aa
.	.	.	.	4D	.	.
.	.	.	.	.	8ff#	.
.	.	.	.	4G	2gg	2gg
.	.	.	.	4GG	.	.
=25	=25	=25	=25	=25	=25	=25
4G	4g	4dd	4bb-	4G	4dd	4bb-
4F#	4d	4dd	4aa	4F#	4dd	4aa
4G	4g	4dd	4bb-	4G	4dd	4bb-
4D	4f#	4dd	4aa	4D	4dd	4aa
=26	=26	=26	=26	=26	=26	=26
1r	1r	1r	1r	4d	12ff	12aa
.	.	.	.	.	12gg	12bb-
.	.	.	.	.	12ff	12aa
.	.	.	.	4c#	12ee	12aa
.	.	.	.	.	12ff	12bb-
.	.	.	.	.	12ee	12aa
.	.	.	.	4d	12ff	12aa
.	.	.	.	.	12gg	12bb-
.	.	.	.	.	12ff	12aa
.	.	.	.	4A	12ee	12aa
.	.	.	.	.	12ff	12bb-
.	.	.	.	.	12ee	12aa
=27	=27	=27	=27	=27	=27	=27
4B-	4b-	4dd	4ff	4B-	4dd	4ff
4A	4f	4cc	4ff	4A	4cc	4ff
4B-	4b-	4dd	4ff	4B-	4dd	4ff
4F	4a	4cc	4ff	4F	4cc	4ff
=28	=28	=28	=28	=28	=28	=28
1r	1r	1r	1r	4c	12ee-	12gg
.	.	.	.	.	12ff	12aa-
.	.	.	.	.	12ee-	12gg
.	.	.	.	4B	12dd	12gg
.	.	.	.	.	12ee-	12aa-
.	.	.	.	.	12dd	12gg
.	.	.	.	4c	12ee-	12gg
.	.	.	.	.	12ff	12aa-
.	.	.	.	.	12ee-	12gg
.	.	.	.	4G	12dd	12gg
.	.	.	.	.	12ee-	12aa-
.	.	.	.	.	12dd	12gg
=29	=29	=29	=29	=29	=29	=29
4E-	4g	4cc	4gg	4E-	4cc	4gg
4F	8f	2ff	4aa-	4F	2ff	4aa-
.	8e-	.	.	.	.	.
4G	4d	.	4b	4G	.	4b
4C	8e-	4ee-	4cc	4C	4ee-	4cc
.	8f	.	.	.	.	.
=30	=30	=30	=30	=30	=30	=30
4G	4.g	2dd	4.cc	4G	2dd	4.cc
4GG	.	.	.	4GG	.	.
.	8g	.	8b	.	.	8b
2C	2g	2cc	2cc	2C	2cc	2cc
=31	=31	=31	=31	=31	=31	=31
2r	2r	2r	2r	4c	12ee-	12gg
.	.	.	.	.	12ff	12aa-
.	.	.	.	.	12ee-	12gg
.	.	.	.	4B	12dd	12gg
.	.	.	.	.	12ee-	12aa-
.	.	.	.	.	12dd	12gg
4c	4cc	4ee-	4gg	4c	12ee-	12gg
.	.	.	.	.	12ff	12aa-
.	.	.	.	.	12ee-	12gg
4G	4b	4dd	4gg	4G	12dd	12gg
.	.	.	.	.	12ee-	12aa-
.	.	.	.	.	12dd	12gg
=32	=32	=32	=32	=32	=32	=32
2r	2r	2r	2r	4d	12ff	12aa
.	.	.	.	.	12gg	12bb-
.	.	.	.	.	12ff	12aa
.	.	.	.	4c#	12ee	12aa
.	.	.	.	.	12ff	12bb-
.	.	.	.	.	12ee	12aa
4d	4dd	4ff	4aa	4d	12ff	12aa
.	.	.	.	.	12gg	12bb-
.	.	.	.	.	12ff	12aa
4A	4cc#	4ee	4aa	4A	12ee	12aa
.	.	.	.	.	12ff	12bb-
.	.	.	.	.	12ee	12aa
=33	=33	=33	=33	=33	=33	=33
2r	2r	2r	2r	4B-	12dd	12ff
.	.	.	.	.	12ee-	12gg
.	.	.	.	.	12dd	12ff
.	.	.	.	4A	12cc	12ff
.	.	.	.	.	12dd	12gg
.	.	.	.	.	12cc	12ff
4B-	4b-	4dd	4ff	4B-	12dd	12ff
.	.	.	.	.	12ee-	12gg
.	.	.	.	.	12dd	12ff
4F	4a	4cc	4ff	4F	12cc	12ff
.	.	.	.	.	12dd	12gg
.	.	.	.	.	12cc	12ff
=34	=34	=34	=34	=34	=34	=34
2r	2r	2r	2r	4B-	12dd	12gg
.	.	.	.	.	12ee-	12aa
.	.	.	.	.	12dd	12gg
.	.	.	.	4A	12cc	12ff
.	.	.	.	.	12dd	12gg
.	.	.	.	.	12cc	12ff
4G	4g	4b-	4ee-	4G	12b-	12ee-
.	.	.	.	.	12cc	12ff
.	.	.	.	.	12b-	12ee-
4F	4d	4a	4dd	4F	12a	12dd
.	.	.	.	.	12b-	12ee-
.	.	.	.	.	12a	12dd
=35	=35	=35	=35	=35	=35	=35
2r	2r	2r	2r	4G	12b-	12ee-
.	.	.	.	.	12cc	12ff
.	.	.	.	.	12b-	12ee-
.	.	.	.	4F	12a	12dd
.	.	.	.	.	12b-	12ee-
.	.	.	.	.	12a	12dd
4E-	4e-	4g	4cc	4E-	12g	12cc
.	.	.	.	.	12a	12dd
.	.	.	.	.	12g	12cc
4D	4B-	4f	4b-	4D	12f	12b-
.	.	.	.	.	12g	12cc
.	.	.	.	.	12f	12b-
=36	=36	=36	=36	=36	=36	=36
2r	2r	2r	2r	4B-	12dd	12gg
.	.	.	.	.	12cc	12aa
.	.	.	.	.	12dd	12gg
.	.	.	.	4d	12b-	12ff
.	.	.	.	.	12a	12gg
.	.	.	.	.	12b-	12ff
4E-	4e-	8g	8.bb-	4E-	8g	8.bb-
.	.	8a	.	.	8a	.
.	.	.	16ee-	.	.	16ee-
4BB-	4f	4b-	8dd	4BB-	4b-	8dd
.	.	.	8cc	.	.	8cc
=37	=37	=37	=37	=37	=37	=37
4F	4.f	4.b-	4dd	4F	4.b-	4dd
4FF	.	.	4cc	4FF	.	4cc
.	8f	8a	.	.	8a	.
2BB-	2d	2b-	2b-	2BB-	2b-	2b-
=38	=38	=38	=38	=38	=38	=38
2r	2r	2r	2r	4B-	12dd	12gg
.	.	.	.	.	12ee-	12aa-
.	.	.	.	.	12dd	12gg
.	.	.	.	4A	12cc	12ff
.	.	.	.	.	12dd	12gg
.	.	.	.	.	12cc	12ff
4G	4g	4b-	4ee-	4G	12b-	12ee-
.	.	.	.	.	12cc	12ff
.	.	.	.	.	12b-	12ee-
4F	4d	4a	4dd	4F	12a	12dd
.	.	.	.	.	12b-	12ee-
.	.	.	.	.	12a	12dd
=39	=39	=39	=39	=39	=39	=39
2r	2r	2r	2r	4G	12b-	12ee-
.	.	.	.	.	12cc	12ff
.	.	.	.	.	12b-	12ee-
.	.	.	.	4F	12a	12dd
.	.	.	.	.	12b-	12ee-
.	.	.	.	.	12a	12dd
4E-	4e-	4g	4cc	4E-	12g	12cc
.	.	.	.	.	12a	12dd
.	.	.	.	.	12g	12cc
4D	4B-	4f	4b-	4D	12f	12b-
.	.	.	.	.	12g	12cc
.	.	.	.	.	12f	12b-
=40	=40	=40	=40	=40	=40	=40
2r	2r	2r	2r	4B-	12dd	12gg
.	.	.	.	.	12cc	12aa
.	.	.	.	.	12dd	12gg
.	.	.	.	4d	12b-	12ff
.	.	.	.	.	12a	12gg
.	.	.	.	.	12b-	12ff
4E-	4e-	8g	8.bb-	4E-	8g	8.bb-
.	.	8a	.	.	8a	.
.	.	.	16ee-	.	.	16ee-
4BB-	4f	4b-	8dd	4BB-	4b-	8dd
.	.	.	8cc	.	.	8cc
=41	=41	=41	=41	=41	=41	=41
4F	4.f	4.b-	4dd	4F	4.b-	4dd
4FF	.	.	4cc	4FF	.	4cc
.	8f	8a	.	.	8a	.
2BB-	2d	2b-	2b-	2BB-	2b-	2b-
=42	=42	=42	=42	=42	=42	=42
2r	2r	2r	2r	4B-	12dd	12gg
.	.	.	.	.	12cc	12aa
.	.	.	.	.	12dd	12gg
.	.	.	.	4d	12b-	12ff
.	.	.	.	.	12a	12gg
.	.	.	.	.	12b-	12ff
4E-	4e-	8g	8.bb-	4E-	8g	8.bb-
.	.	8a	.	.	8a	.
.	.	.	16ee-	.	.	16ee-
4BB-	4f	4b-	8dd	4BB-	4b-	8dd
.	.	.	8cc	.	.	8cc
=43	=43	=43	=43	=43	=43	=43
4F	4.f	4.b-	4dd	4F	4.b-	4dd
4FF	.	.	4cc	4FF	.	4cc
.	8f	8a	.	.	8a	.
2BB-	2d	2b-	2b-	2BB-	2b-	2b-
==	==	==	==	==	==	==
*-	*-	*-	*-	*-	*-	*-
!!!RWG: This file only contains pitch and duration data.
!!!RWG: Transposing instruments are not transposed.
!!!RWG: Durations of rests and tied notes may be interpreted.
!!!RWG: Key is interpreted using the Humdrum key tool.
!!!SCA: 
!!!YOR: Chrysander Edition
!!!AGN: concerto grosso
!!!AFT: stage1
!!!ENC: F. Bennion
!!!END: 1997/04/15
!!!AST: baroque
!!!YEC: Copyright 1994, Center for Computer Assisted Research in the Humanities
!!!YEM: Rights to all derivative electronic formats reserved.
!!!YEM: Refer to licensing agreement for further details.
!!!YEN: United States of America
!!!EED: W.B. Hewlett
!!!KEY: 3718918216
!!!EMD: Converted from MuseData to Humdrum Aug 9, 1999, by Bret Aarden using muse2kern.
!!!VTS: 778148975
